X:374
L:1/8
M:2/2
K:Emin
 B, | E2 EB GEB^c | d2 Ad FDAF | E2 EB GEB^c | dBAF BEE :| f | geBA GFEg | fdAG FEDf | geBA GFEg | 
 fdaf geef | geBA GFEg | fdAG FEDf | gebg faef | dBAF BEE ||

